X:50
T:6. Gaillarde
C:Tielman Susato
B:Tielman Susato: "Danserye" (1551) no. 50
R:Galliard
Z:Transcribed by Frank Nordberg - http://www.musicaviva.com
F:http://abc.musicaviva.com/tunes/susato-tielman/susato-1551-50/susato-1551-50-4m.abc
M:3/2
L:1/2
K:Ddor
V:1
FFE|D2D|EED|C>D E/F/|GFE|D>EF|ED2|^C2z:|
|:EEE|E2D|CDE|F2E|E2D|E2z:|
|:A,B,C|D2D|CDE|F2E|D2^C|D2z::|
V:2
CCC|A,>G, A,/B,/|CC,D,|E,2C,|D,C,G,|_B,B,A,|CA,_B,|A,2z:|
|:CCC|C2A,|A,A,C|C2C|CA,>B,|C2z:|
CB,A,|_B,_B,G,|A,A,C|C2C|A,A,2|A2z:|
V:3
A,A,G,|F,2F,|G,>F,G,|A,2A,|B,A,G,/E,/|F,>G,A,|G,F,G,|E,2z:|
A,A,A,|A,>G,F,|E,F,G,|A,2G,|E,F,2|E,2z:|
|:F,D,C,|G,>F,D,|E,F,G,|A,2G,|F,E,2|D,2z:|
V:4
F,,F,,C,|D,2D,|C,C,B,,|A,,2A,,|G,,A,,/B,,/C,|_B,,>A,,F,,|C,D,G,,|A,,2z:|
|:A,,A,,A,,|A,,2D,|A,,D,C,|F,2C,|C,D,2|C,2z:|
|:F,,G,,A,,|G,,>A,,_B,,|A,,D,C,|F,,2C,|D,A,,2|D,2z:|
W:
W:
W:  From Musica Viva - http://www.musicaviva.com
W:  the Internet center for free sheet music downloads.
